X: 219
T:Greysteil
S:Straloch lute MS, 1627; probably as sung to James IV in 1497
B:Robert Chambers, Book of Days, volume 1, for April 17
M:C
L:1/4
Q:1/4=120
K:D
F>F F d    |c>B A F|E>E E d    |c B A2 |
F>F F d    |c>B A F|E>E E d    |c B A2 |
d D A(B/c/)|d c B A|d D A(B/c/)|d c B A|
f>f f f    |f f f f|e>e e d    |c B A2 |
d D A B/c/ |d c B A|d D A(B/c/)|d c B A|
F>F F d    |c>B A F|E>E E d    |c B A2 |
F>F F d    |c>B A F|E>E E d    |c B A2|]

This tune is in the minor mode with tonal centre D but ends on A:

